X:244
M:3/4
L:1/4
K:G
D | G2 G | A2 c | (B3/2 A/ B) | A2 A | G2 G | c2 B | !fermata!A2 B | E2 F | G2 A | (F3/2 E/ F) | D2 B | B2 d | c2 c | !fermata!B2 B | B2 d | A2 B | (c3/2 d/ c) | B2 B | B2 d | c2 B | !fermata!A2 !sintro!B | A2 G | A2 F | (G3/2 F/ G) | A2 B | d2 B | c A2 | !fermata!G2 !eintro!|]
